DevCon_2019/Icons/SVG/icon_nav_angle_down.svg

<svg height="10" viewBox="0 0 16 10" width="16" xmlns="http://www.w3.org/2000/svg"><path d="m1409.0268 37.4999923-6.625 6.6160793c-.22322.2232145-.58036.2232145-.80358 0l-6.625-6.6160793c-.22322-.2232146-.22322-.5892865 0-.812501l1.48214-1.4732161c.22321-.2232145.58036-.2232145.80357 0l4.74108 4.7410771 4.74108-4.7410771c.22321-.2232145.58035-.2232145.80357 0l1.48214 1.4732161c.22322.2232145.22322.5892864 0 .812501z" fill="#0b132b" fill-rule="evenodd" transform="translate(-1394 -35)"/></svg>

<?xml version="1.0" encoding="UTF-8"?>
<svg width="16px" height="10px" viewBox="0 0 16 10" version="1.1" xmlns="http://www.w3.org/2000/svg" xmlns:xlink="http://www.w3.org/1999/xlink">
    <!-- Generator: Sketch 52.6 (67491) - http://www.bohemiancoding.com/sketch -->
    <title>chevron-down - FontAwesome</title>
    <desc>Created with Sketch.</desc>
    <g id="Symbols" stroke="none" stroke-width="1" fill="none" fill-rule="evenodd">
        <g id="Navigation_Scrolled" transform="translate(-1394.000000, -35.000000)" fill="#0B132B">
            <g id="NAVBAR">
                <path d="M1409.0268,37.4999923 L1402.4018,44.1160716 C1402.17858,44.3392861 1401.82144,44.3392861 1401.59822,44.1160716 L1394.97322,37.4999923 C1394.75,37.2767777 1394.75,36.9107058 1394.97322,36.6874913 L1396.45536,35.2142752 C1396.67857,34.9910607 1397.03572,34.9910607 1397.25893,35.2142752 L1402.00001,39.9553523 L1406.74109,35.2142752 C1406.9643,34.9910607 1407.32144,34.9910607 1407.54466,35.2142752 L1409.0268,36.6874913 C1409.25002,36.9107058 1409.25002,37.2767777 1409.0268,37.4999923 Z" id="chevron-down---FontAwesome"></path>
            </g>
        </g>
    </g>
</svg>
